X:94
T: Da qi laozi Ying xinnian
N: C1587
O: China,Jiangsu, Peixian
S: III, 502]
R: Wuge, Lianhualao]
M: 2/4
L: 1/16
K: C
G2e2d2de | c2cdA2G2 | A2d2cdcA | G3EG4 |
d2cde2ge | d2d2d2cAdcA2 | G3EG4 |
A2d2c4 | A2d2c4 | EGEGAGAc | G2GEG4 |
e3cd2c2 | c2E4DE | GEEDC4 |
G3Ee3d | c2A2G4 | e3cd2c2 | c2E4DE | GEEDC4

@@@ Tune index: 6649
